X:482
T:Reel 482
M:4/4
K:Amin
L:1/8
A,B,|CA,EA, CA,A,C|B,G,DG, B,G,G,B,|CA,EA, CA,EA,|DB,G,A, B,A,A,:|D|CB,CB, CEDC|B,G,G^F GDB,G,|CA,A,B, CDEA|GEDB, A,A,A,D|CB,CD E2E^F|GEDC B,G,G,B,|A,B,CD E2AE|FAED CA,A,|
